X: 1017
T: Hicaz Aranağme (Ağıraksak)
C: ?
O: Turkey
F: http://compmusic.upf.edu/node/140
N: hicaz--aranagme--agiraksak--1--
N: makam= hicaz
N: form= aranagme
N: usul= agiraksak = 9/4
M: 9/4
L: 1/16
K: C _7/8B ^f ^c 
Q: 1/4=66
%%MIDI tuningsystem comma53
c2d4d2 d4 e=fed cdcB AGAB c2cd cdcd cBBA  | 
w:  ARANAĞME  | 
A2g4fe d2f4ed d2a2 g2f2 efef ag^1/4fe d4  | 
w:   | 
cded e2dc Bcdc d2cB ABcB c2BA d3/2c/de dcBA G4  | 
w:   | 
A2B4A2 B2A2 g=fed c3d cBBA A4 GABc d4  | 
w:   | 
c2d4d2 d4 e=fed cdcB AGAB c2cd cdcd cBBA  | 
w:  ARANAĞME  | 
A2g4fe d2f4ed d2a2 g2f2 efef ag^1/4fe d4  | 
w:   | 
cded e2dc Bcdc d2cB ABcB c2BA d3/2c/de dcBA G4  | 
w:   | 
A2B4A2 B2A2 g=fed c3d cBBA A8 z4  | |


